X: 7202
T: Cirkelpolska
R: waltz
M: 3/4
K: Gminor
|:gabagf|a/g/f/g/ d2 B>c|dd/B/ cc/A/ BB/d/|cc/d/ BB/c/ A2|
gabagf|a/g/f/g/ d2 B>c|dd/B/ cc/A/ BB/d/|c/A/^F/A/ G4:|
|:dd/B/ cc/A/ BB/d/|cc/d/ BB/c/ A2|dd/B/ cc/A/ BB/d/|cc/d/ BB/c/ A2|
gabagf|a/g/f/g/ d2 B>c|dd/B/ cc/A/ BB/d/|c/A/^F/A/ G4:|

